azure-docs/api_speech_service.svg

﻿<?xml version="1.0" encoding="UTF-8" standalone="no"?>
<svg
   xmlns:dc="http://purl.org/dc/elements/1.1/"
   xmlns:cc="http://creativecommons.org/ns#"
   xmlns:rdf="http://www.w3.org/1999/02/22-rdf-syntax-ns#"
   xmlns:svg="http://www.w3.org/2000/svg"
   xmlns="http://www.w3.org/2000/svg"
   xmlns:sodipodi="http://sodipodi.sourceforge.net/DTD/sodipodi-0.dtd"
   xmlns:inkscape="http://www.inkscape.org/namespaces/inkscape"
   width="512px"
   height="512px"
   viewBox="0 0 512 512"
   version="1.1"
   id="svg14"
   sodipodi:docname="API_Speech_Service.svg"
   inkscape:version="0.92.3 (2405546, 2018-03-11)">
  <metadata
     id="metadata18">
    <rdf:RDF>
      <cc:Work
         rdf:about="">
        <dc:format>image/svg+xml</dc:format>
        <dc:type
           rdf:resource="http://purl.org/dc/dcmitype/StillImage" />
        <dc:title>bingSpeech-wht-bluBG-512p</dc:title>
      </cc:Work>
    </rdf:RDF>
  </metadata>
  <sodipodi:namedview
     pagecolor="#ffffff"
     bordercolor="#666666"
     borderopacity="1"
     objecttolerance="10"
     gridtolerance="10"
     guidetolerance="10"
     inkscape:pageopacity="0"
     inkscape:pageshadow="2"
     inkscape:window-width="795"
     inkscape:window-height="873"
     id="namedview16"
     showgrid="false"
     inkscape:zoom="0.4609375"
     inkscape:cx="256"
     inkscape:cy="256"
     inkscape:window-x="336"
     inkscape:window-y="81"
     inkscape:window-maximized="0"
     inkscape:current-layer="svg14" />
  <!-- Generator: Sketch 46.2 (44496) - http://www.bohemiancoding.com/sketch -->
  <title
     id="title2">bingSpeech-wht-bluBG-512p</title>
  <desc
     id="desc4">Created with Sketch.</desc>
  <defs
     id="defs6" />
  <g
     id="PRODUCTION-ICONS"
     stroke-width="1"
     stroke="none"
     fill-rule="evenodd"
     fill="none">
    <g
       id="bingSpeech-wht-bluBG-512p">
      <g
         id="Bing-Speech-API">
        <rect
           id="Rectangle-3-Copy-8"
           x="0"
           y="0"
           width="512"
           height="512"
           fill="#0063B1" />
        <path
           d="M398.294471,241.309582 C398.294471,290.842738 358.625849,331.370382 310.150827,331.370382 L207.546027,331.370382 C205.452516,331.370382 203.38176,331.285049 201.322382,331.137138 L143.915804,355.775716 L159.520427,316.721493 C135.416604,300.604871 119.396693,272.774827 119.396693,241.303893 L119.396693,234.124516 C119.396693,184.597049 159.065316,144.069404 207.540338,144.069404 L310.145138,144.069404 C358.62016,144.069404 398.288782,184.597049 398.294471,234.124516 L398.294471,241.309582 Z M310.145138,121.387804 L207.540338,121.387804 C146.424604,121.387804 96.7094044,172.178204 96.7094044,234.124516 L96.7094044,241.303893 C96.7094044,273.133227 109.94176,302.834916 132.230827,323.878116 L102.523449,398.226204 L205.486649,354.029227 C206.175004,354.046293 206.86336,354.051982 207.546027,354.051982 L310.150827,354.051982 C371.26656,354.051982 420.976071,303.261582 420.976071,241.309582 L420.976071,234.124516 C420.970382,172.172516 371.260871,121.387804 310.145138,121.387804 L310.145138,121.387804 Z"
           id="Fill-7"
           fill="#FFFFFF" />
      </g>
    </g>
  </g>
  <text
     xml:space="preserve"
     style="font-style:normal;font-weight:normal;font-size:40px;line-height:1.25;font-family:sans-serif;letter-spacing:0px;word-spacing:0px;fill:#000000;fill-opacity:1;stroke:none"
     x="223.45763"
     y="284.2034"
     id="text3735"><tspan
       sodipodi:role="line"
       id="tspan3733"
       x="223.45763"
       y="320.69662"
       style="fill:#ffffff" /></text>
  <ellipse
     style="fill:#ffffff;fill-opacity:1;stroke:none;stroke-width:8.15799999;stroke-miterlimit:4;stroke-dasharray:none;stroke-opacity:1"
     id="path4558"
     cx="259.79837"
     cy="239.35593"
     rx="82.295807"
     ry="81.853355" />
  <text
     xml:space="preserve"
     style="font-style:normal;font-variant:normal;font-weight:normal;font-stretch:normal;font-size:160px;line-height:1.25;font-family:Haettenschweiler;-inkscape-font-specification:'Haettenschweiler, Normal';font-variant-ligatures:normal;font-variant-caps:normal;font-variant-numeric:normal;font-feature-settings:normal;text-align:start;letter-spacing:0px;word-spacing:0px;writing-mode:lr-tb;text-anchor:start;fill:#0063b1;fill-opacity:1;stroke:none"
     x="235.45763"
     y="296.37289"
     id="text3751"><tspan
       sodipodi:role="line"
       id="tspan3749"
       x="235.45763"
       y="296.37289">1</tspan></text>
</svg>

<svg xmlns="http://www.w3.org/2000/svg" width="512" height="512"><g fill-rule="evenodd" fill="none"><path fill="#0063B1" d="M0 0h512v512H0z"/><path d="M398.294 241.31c0 49.533-39.668 90.06-88.143 90.06H207.546c-2.093 0-4.164-.085-6.224-.233l-57.406 24.639 15.604-39.055c-24.103-16.116-40.123-43.946-40.123-75.417v-7.18c0-49.527 39.668-90.055 88.143-90.055h102.605c48.475 0 88.144 40.528 88.15 90.056v7.185zm-88.149-119.922H207.54c-61.115 0-110.83 50.79-110.83 112.737v7.179c0 31.83 13.232 61.53 35.52 82.574l-29.707 74.348 102.964-44.197a83.16 83.16 0 0 0 2.059.023h102.605c61.116 0 110.825-50.79 110.825-112.742v-7.185c-.006-61.952-49.715-112.737-110.83-112.737z" fill="#FFF"/></g><text style="line-height:1.25" x="223.458" y="284.203" font-weight="400" font-size="40" font-family="sans-serif" letter-spacing="0" word-spacing="0"/><ellipse cx="259.798" cy="239.356" rx="82.296" ry="81.853" fill="#fff"/><text style="line-height:1.25;-inkscape-font-specification:'Haettenschweiler, Normal';font-variant-ligatures:normal;font-variant-caps:normal;font-variant-numeric:normal;font-feature-settings:normal;text-align:start" x="235.458" y="296.373" font-weight="400" font-size="160" font-family="Haettenschweiler" letter-spacing="0" word-spacing="0" fill="#0063b1"><tspan x="235.458" y="296.373">1</tspan></text></svg>
